X: 43316
T: Woods Of Old Limerick, The
R: jig
M: 6/8
K: Emajor
BA|FGE FGA|BEe dBA|FGE FGA|FB,B, FGA|
FGE FGA|BEe dBA|FGE FBA|FED E2:|
f|ged efe|dB^A Afg|afd efg|afd ebf|
gfe fed|efe dBA|FGE FBA|FED E2:|

